dashboard/src/assets/icons/administration.svg

<?xml version="1.0" encoding="UTF-8"?>
<svg width="128" height="128" version="1.1" viewBox="0 0 128 128" xmlns="http://www.w3.org/2000/svg">
 <defs>
  <style>.cls-1{fill:#fff;}.cls-2{fill:#65c8d0;}.cls-3{fill:#2f528f;}.cls-4{fill:#d1335b;}.cls-5{fill:#2977ff;}</style>
 </defs>
 <title>Administration</title>
 <g>
  <path d="m28.865 99.456s-0.85432-41.251-0.23529-44.81c0.61902-3.5594 0.61902-6.4998 3.7141-6.4998s5.526 1.6197 7.483-1.202 9.2045-17.456 22.694-17.059c15.785 0.46427 21.404 7.0515 25.892 17.524 0.90372 2.1087 1.1901-1.1194 5.059 0.1187 3.8689 1.238 5.107 2.6309 5.2617 6.345 0.15476 3.7141 0.41039 46.027 0.41039 46.027l10.113 0.86429v15.785l-91.151 0.61902-0.15476-16.714z" fill="#fff"/>
 </g>
 <g transform="matrix(.57688 0 0 .57688 15.894 9.096)" style="" data-name="Calque 2">
  <g data-name="Calque 1">
   <rect class="cls-1" x="91.3" y="3.17" width="9.3" height="19.7" fill="#fff"/>
   <g fill="#65c8d0">
    <path class="cls-2" d="m146.19 159.55h-19.19v-59.71a1.17 1.17 0 0 0-1.21-1.21h-13.58a1.17 1.17 0 0 0-1.21 1.21v59.7h-19.75v-59.7a1.17 1.17 0 0 0-1.25-1.2h-13.26a1.37 1.37 0 0 0-1.44 1.21v59.7h-19.53v-59.71a1.37 1.37 0 0 0-1.44-1.21h-13.33a1.17 1.17 0 0 0-1.21 1.21v59.7h-19.72v-77.67l126.12 0.78zm-14.19-5.06h9.13v-66.82l-116.01-0.67v67.54h9.65v-54.7a6.19 6.19 0 0 1 6.23-6.26h13.3a6.39 6.39 0 0 1 6.49 6.26v54.65h9.42v-54.65a6.39 6.39 0 0 1 6.49-6.26h13.3a6.19 6.19 0 0 1 6.26 6.26v54.65h9.65v-54.65a6.19 6.19 0 0 1 6.26-6.26h13.54a6.19 6.19 0 0 1 6.29 6.26z"/>
    <rect class="cls-2" x="22.13" y="170.33" width="122.52" height="5.05"/>
    <rect class="cls-2" x="37.3" y="154.49" width="92.18" height="5.05"/>
    <rect class="cls-2" x="40.95" y="65.34" width="84.76" height="5.05"/>
   </g>
   <rect class="cls-3" x="82.56" y="3.17" width="9.3" height="19.7" fill="#2f528f"/>
   <rect class="cls-4" x="99.77" y="3.17" width="9.3" height="19.7" fill="#d1335b"/>
   <path class="cls-5" d="m158.19 190.35h-149.83a8.49 8.49 0 0 1-8.36-8.59v-18.67a8.49 8.49 0 0 1 8.36-8.6h11.71v-80.08a9.3 9.3 0 0 1 9.3-9.06h10.25a46.14 46.14 0 0 1 38.79-31.53v-27.56a6.19 6.19 0 0 1 6.26-6.26h21.94a6.39 6.39 0 0 1 6.49 6.26v13.54a6.39 6.39 0 0 1-6.49 6.26h-19.88v7.67a46 46 0 0 1 40.42 31.61h10.26a9.07 9.07 0 0 1 9.06 9.06v80.09h11.71a8.71 8.71 0 0 1 8.6 8.6v18.67a8.71 8.71 0 0 1-8.59 8.59zm-149.83-30.8a3.48 3.48 0 0 0-3.31 3.54v18.67a3.48 3.48 0 0 0 3.31 3.54h149.83a3.64 3.64 0 0 0 3.54-3.54v-18.67a3.64 3.64 0 0 0-3.54-3.54h-16.77v-85.14a4 4 0 0 0-4-4h-14l-0.52-1.84a41.49 41.49 0 0 0-38.7-29.9l-2.25-0.05h-0.8a41.09 41.09 0 0 0-37.22 29.92l-0.51 1.85h-14.06a4.18 4.18 0 0 0-4.24 4v85.14zm75.11-138.55h23.15a1.37 1.37 0 0 0 1.38-1.2v-13.54a1.37 1.37 0 0 0-1.44-1.21h-21.89a1.17 1.17 0 0 0-1.21 1.21z" fill="#2977ff"/>
  </g>
 </g>
</svg>

<svg xmlns="http://www.w3.org/2000/svg" viewBox="0 0 166.78 190.35"><defs><style>.cls-1{fill:#fff;}.cls-2{fill:#65c8d0;}.cls-3{fill:#2f528f;}.cls-4{fill:#d1335b;}.cls-5{fill:#2977ff;}</style></defs><title>Administration</title><g id="Calque_2" data-name="Calque 2"><g id="Calque_1-2" data-name="Calque 1"><rect class="cls-1" x="91.3" y="3.17" width="9.3" height="19.7"/><path class="cls-2" d="M146.19,159.55H127V99.84a1.17,1.17,0,0,0-1.21-1.21H112.21A1.17,1.17,0,0,0,111,99.84v59.7H91.25V99.84A1.17,1.17,0,0,0,90,98.64H76.74a1.37,1.37,0,0,0-1.44,1.21v59.7H55.77V99.84a1.37,1.37,0,0,0-1.44-1.21H41a1.17,1.17,0,0,0-1.21,1.21v59.7H20.07V81.87l126.12.78ZM132,154.49h9.13V87.67L25.12,87v67.54h9.65V99.84A6.19,6.19,0,0,1,41,93.58h13.3a6.39,6.39,0,0,1,6.49,6.26v54.65h9.42V99.84a6.39,6.39,0,0,1,6.49-6.26H90a6.19,6.19,0,0,1,6.26,6.26v54.65h9.65V99.84a6.19,6.19,0,0,1,6.26-6.26h13.54A6.19,6.19,0,0,1,132,99.84Z"/><rect class="cls-2" x="22.13" y="170.33" width="122.52" height="5.05"/><rect class="cls-2" x="37.3" y="154.49" width="92.18" height="5.05"/><rect class="cls-2" x="40.95" y="65.34" width="84.76" height="5.05"/><rect class="cls-3" x="82.56" y="3.17" width="9.3" height="19.7"/><rect class="cls-4" x="99.77" y="3.17" width="9.3" height="19.7"/><path class="cls-5" d="M158.19,190.35H8.36A8.49,8.49,0,0,1,0,181.76V163.09a8.49,8.49,0,0,1,8.36-8.6H20.07V74.41a9.3,9.3,0,0,1,9.3-9.06H39.62A46.14,46.14,0,0,1,78.41,33.82V6.26A6.19,6.19,0,0,1,84.67,0h21.94a6.39,6.39,0,0,1,6.49,6.26V19.8a6.39,6.39,0,0,1-6.49,6.26H86.73v7.67a46,46,0,0,1,40.42,31.61h10.26a9.07,9.07,0,0,1,9.06,9.06v80.09h11.71a8.71,8.71,0,0,1,8.6,8.6v18.67A8.71,8.71,0,0,1,158.19,190.35ZM8.36,159.55a3.48,3.48,0,0,0-3.31,3.54v18.67a3.48,3.48,0,0,0,3.31,3.54H158.19a3.64,3.64,0,0,0,3.54-3.54V163.09a3.64,3.64,0,0,0-3.54-3.54H141.42V74.41a4,4,0,0,0-4-4h-14l-.52-1.84a41.49,41.49,0,0,0-38.7-29.9l-2.25-.05-.8,0A41.09,41.09,0,0,0,43.93,68.54l-.51,1.85H29.36a4.18,4.18,0,0,0-4.24,4v85.14ZM83.47,21h23.15A1.37,1.37,0,0,0,108,19.8V6.26a1.37,1.37,0,0,0-1.44-1.21H84.67a1.17,1.17,0,0,0-1.21,1.21Z"/></g></g></svg>
